src/icons/social-google-outline.svg

<?xml version="1.0" encoding="UTF-8"?>
<svg width="512px" height="512px" viewBox="0 0 512 512" version="1.1" xmlns="http://www.w3.org/2000/svg" xmlns:xlink="http://www.w3.org/1999/xlink">
    <!-- Generator: Sketch 62 (91390) - https://sketch.com -->
    <title>social-google-outline</title>
    <desc>Created with Sketch.</desc>
    <g id="social-google-outline" stroke="none" stroke-width="1" fill="none" fill-rule="evenodd">
        <path d="M312.1,95.55 C322.5,104.05 344.3,121.85 344.3,155.75 C344.3,188.75 325.2,204.35 306.2,219.05 C300.2,224.85 293.4,231.05 293.4,240.95 C293.4,250.85 300.2,256.15 305.2,260.15 L321.6,272.65 C341.6,289.15 359.8,304.35 359.8,335.15 C359.8,377.05 318.4,419.45 240.3,419.45 C174.4,419.45 142.6,388.75 142.6,355.65 C142.6,339.55 150.8,316.85 177.6,301.25 C205.7,284.35 244,282.05 264.4,280.75 C258,272.75 250.8,264.25 250.8,250.45 C250.8,242.85 253.1,238.45 255.3,233.05 C250.3,233.45 245.3,233.95 240.8,233.95 C192.6,233.95 165.3,198.75 165.3,163.95 C165.3,143.45 174.9,120.65 194.4,104.15 C220.3,83.15 251.1,79.55 275.7,79.55 L369.3,79.55 L340.3,95.65 L312.1,95.65 L312.1,95.55 Z M279.9,293.55 C276.2,293.15 273.9,293.15 269.5,293.15 C265.4,293.15 240.9,294.05 221.8,300.35 C211.8,303.95 182.7,314.55 182.7,346.35 C182.7,378.05 214,400.75 262.7,400.75 C306.3,400.75 329.5,380.25 329.5,352.55 C329.4,329.65 314.4,317.75 279.9,293.55 M293.1,208.85 C303.6,198.55 304.4,184.35 304.4,176.25 C304.4,144.15 284.8,94.15 247.2,94.15 C235.4,94.15 222.7,99.95 215.4,108.85 C207.7,118.25 205.4,130.25 205.4,141.85 C205.4,171.75 223.1,221.25 262.2,221.25 C273.5,221.35 285.8,215.95 293.1,208.85" id="Shape" fill="#000000" fill-rule="nonzero"></path>
    </g>
</svg>

<svg xmlns="http://www.w3.org/2000/svg" width="512" height="512" viewBox="0 0 512 512">
    <path d="M312.1 95.55c10.4 8.5 32.2 26.3 32.2 60.2 0 33-19.1 48.6-38.1 63.3-6 5.8-12.8 12-12.8 21.9 0 9.9 6.8 15.2 11.8 19.2l16.4 12.5c20 16.5 38.2 31.7 38.2 62.5 0 41.9-41.4 84.3-119.5 84.3-65.9 0-97.7-30.7-97.7-63.8 0-16.1 8.2-38.8 35-54.4 28.1-16.9 66.4-19.2 86.8-20.5-6.4-8-13.6-16.5-13.6-30.3 0-7.6 2.3-12 4.5-17.4-5 .4-10 .9-14.5.9-48.2 0-75.5-35.2-75.5-70 0-20.5 9.6-43.3 29.1-59.8 25.9-21 56.7-24.6 81.3-24.6h93.6l-29 16.1h-28.2v-.1zm-32.2 198c-3.7-.4-6-.4-10.4-.4-4.1 0-28.6.9-47.7 7.2-10 3.6-39.1 14.2-39.1 46 0 31.7 31.3 54.4 80 54.4 43.6 0 66.8-20.5 66.8-48.2-.1-22.9-15.1-34.8-49.6-59m13.2-84.7c10.5-10.3 11.3-24.5 11.3-32.6 0-32.1-19.6-82.1-57.2-82.1-11.8 0-24.5 5.8-31.8 14.7-7.7 9.4-10 21.4-10 33 0 29.9 17.7 79.4 56.8 79.4 11.3.1 23.6-5.3 30.9-12.4"/>
</svg>
